X: 14771
T: Gan Ainm
R: jig
M: 6/8
K: Amajor
|:d|cec ABA|efe agf|efe edc|dBB Bed|
cec ABA|FdF ECE|EFE EAB cAA A2:|
c|f2 f fec|fbf ecB|cBA efe|cBB B2 c|
f2 c fec|afd fec|edc dcB|cAA A2 c|
f2 f fec|fbf ecB|cBA efe|cBB Bed|
cec ABA|FdF ECE|EFE EAB|cAA A2||

